flaticon/essential/notification.svg

<svg xmlns="http://www.w3.org/2000/svg" width="32" height="32" viewBox="0 0 24 24">
    <path d="M 23.78125 4.363281 C 23.78125 1.957031 21.824219 0 19.417969 0 C 17.46875 0 15.8125 1.285156 15.253906 3.054688 L 2.503906 3.054688 C 1.242188 3.054688 0.21875 4.078125 0.21875 5.339844 L 0.21875 21.714844 C 0.21875 22.976562 1.242188 24 2.503906 24 L 18.878906 24 C 20.136719 24 21.164062 22.976562 21.164062 21.714844 L 21.164062 8.359375 C 22.703125 7.683594 23.78125 6.148438 23.78125 4.363281 Z M 20.289062 21.714844 C 20.289062 22.492188 19.65625 23.128906 18.878906 23.128906 L 2.503906 23.128906 C 1.722656 23.128906 1.089844 22.492188 1.089844 21.714844 L 1.089844 5.339844 C 1.089844 4.558594 1.722656 3.925781 2.503906 3.925781 L 15.078125 3.925781 C 15.0625 4.070312 15.054688 4.214844 15.054688 4.363281 C 15.054688 6.769531 17.011719 8.726562 19.417969 8.726562 C 19.71875 8.726562 20.007812 8.695312 20.289062 8.640625 Z M 20.578125 7.652344 C 20.488281 7.683594 20.402344 7.710938 20.316406 7.734375 C 20.300781 7.738281 20.28125 7.742188 20.265625 7.746094 C 20.191406 7.765625 20.113281 7.78125 20.035156 7.796875 C 19.996094 7.804688 19.953125 7.808594 19.914062 7.816406 C 19.855469 7.824219 19.796875 7.832031 19.738281 7.839844 C 19.632812 7.847656 19.527344 7.855469 19.417969 7.855469 C 17.492188 7.855469 15.925781 6.289062 15.925781 4.363281 C 15.925781 4.109375 15.957031 3.851562 16.015625 3.589844 C 16.371094 2.035156 17.761719 0.871094 19.417969 0.871094 C 21.34375 0.871094 22.910156 2.4375 22.910156 4.363281 C 22.910156 5.882812 21.933594 7.171875 20.578125 7.652344 Z M 20.578125 7.652344"/>
</svg>

<svg xmlns="http://www.w3.org/2000/svg" width="32" height="32" viewBox="0 0 24 24">
    <path d="M23.781 4.363A4.368 4.368 0 0 0 19.418 0a4.374 4.374 0 0 0-4.164 3.055H2.504A2.286 2.286 0 0 0 .219 5.34v16.375A2.286 2.286 0 0 0 2.504 24h16.375a2.288 2.288 0 0 0 2.285-2.285V8.359a4.368 4.368 0 0 0 2.617-3.996zM20.29 21.715c0 .777-.633 1.414-1.41 1.414H2.504a1.416 1.416 0 0 1-1.414-1.414V5.34c0-.781.633-1.414 1.414-1.414h12.574a4.368 4.368 0 0 0 5.21 4.715zm.29-14.063c-.09.032-.177.059-.263.082l-.05.012c-.075.02-.153.035-.23.05-.04.009-.083.013-.122.02l-.176.024a3.496 3.496 0 0 1-3.813-3.477A3.5 3.5 0 0 1 19.418.871a3.496 3.496 0 0 1 3.493 3.492c0 1.52-.976 2.809-2.332 3.29zm0 0"/>
</svg>
